X: 36808
T: Shetland Night In London
R: waltz
M: 3/4
K: Amixolydian
|:A3 B BA|c3 A BA|Gd2B2G|Fd2A2F|
A3 B BA|c3 A BA|GF EG G/G/G|F2 A2 B2|
A3 B BA|c3 A BA|G>A BG AG|FA de fa|
aA AB ce|a3 e fe|dc/d/ eA BA|GA A4||
|:g3 f ga|f3 e dB|ea2c2A|ea2c2A|
g3f ga|f3e dB|ea2c2B|BA A4:|
|:AB ce2A|Bc e2 A2|ed d=c cB|=cd/c/ BA BG|
AB ce2A|Bc e2 A2|ed d=c cB|A2 G2 A2:|

